static/images/icons/mastodon-dark.svg

<svg width="42" height="42" viewBox="0 0 42 42" fill="none" xmlns="http://www.w3.org/2000/svg">
<path fill-rule="evenodd" clip-rule="evenodd" d="M28.5059 24.411H25.7159V17.527C25.7159 16.077 25.1109 15.34 23.8979 15.34C22.5579 15.34 21.8859 16.214 21.8859 17.941V21.709H19.1139V17.94C19.1139 16.213 18.4419 15.339 17.1019 15.339C15.8889 15.339 15.2829 16.075 15.2829 17.526V24.41H12.4939V17.318C12.4939 15.868 12.8609 14.717 13.5959 13.865C14.3559 13.012 15.3489 12.575 16.5829 12.575C18.0099 12.575 19.0909 13.128 19.8049 14.234L20.4999 15.407L21.1949 14.234C21.9089 13.128 22.9899 12.576 24.4179 12.576C25.6509 12.576 26.6449 13.012 27.4039 13.865C28.1389 14.717 28.5059 15.869 28.5059 17.318V24.411ZM32.9989 16.865C32.9989 11.007 29.1889 9.291 29.1889 9.291C27.2699 8.4 23.9719 8.028 20.5459 8H20.4619C17.0349 8.028 13.7389 8.402 11.8179 9.29C11.8179 9.29 8.00787 11.007 8.00787 16.865C8.00787 18.205 7.98287 19.809 8.02487 21.51C8.16287 27.238 9.06787 32.883 14.3249 34.285C16.7479 34.931 18.8299 35.067 20.5049 34.974C23.5449 34.804 25.2509 33.881 25.2509 33.881L25.1509 31.659C25.1509 31.659 22.9789 32.349 20.5399 32.265C18.1229 32.182 15.5709 32.003 15.1799 29.014C15.1428 28.7359 15.1248 28.4556 15.1259 28.175C15.1259 28.175 17.4989 28.76 20.5059 28.898C22.3439 28.983 24.0679 28.79 25.8189 28.579C29.1769 28.175 32.1009 26.091 32.4689 24.186C33.0479 21.186 32.9989 16.865 32.9989 16.865Z" fill="#105696"/>
</svg>

<svg fill="none" height="42" viewBox="0 0 42 42" width="42" xmlns="http://www.w3.org/2000/svg"><path clip-rule="evenodd" d="m28.5059 24.411h-2.79v-6.884c0-1.45-.605-2.187-1.818-2.187-1.34 0-2.012.874-2.012 2.601v3.768h-2.772v-3.769c0-1.727-.672-2.601-2.012-2.601-1.213 0-1.819.736-1.819 2.187v6.884h-2.789v-7.092c0-1.45.367-2.601 1.102-3.453.76-.853 1.753-1.29 2.987-1.29 1.427 0 2.508.553 3.222 1.659l.695 1.173.695-1.173c.714-1.106 1.795-1.658 3.223-1.658 1.233 0 2.227.436 2.986 1.289.735.852 1.102 2.004 1.102 3.453zm4.493-7.546c0-5.858-3.81-7.574-3.81-7.574-1.919-.891-5.217-1.263-8.643-1.291h-.084c-3.427.028-6.723.402-8.644 1.29 0 0-3.81003 1.717-3.81003 7.575 0 1.34-.025 2.944.017 4.645.138 5.728 1.043 11.373 6.30003 12.775 2.423.646 4.505.782 6.18.689 3.04-.17 4.746-1.093 4.746-1.093l-.1-2.222s-2.172.69-4.611.606c-2.417-.083-4.969-.262-5.36-3.251-.0371-.2781-.0551-.5584-.054-.839 0 0 2.373.585 5.38.723 1.838.085 3.562-.108 5.313-.319 3.358-.404 6.282-2.488 6.65-4.393.579-3 .53-7.321.53-7.321z" fill="#105696" fill-rule="evenodd"/></svg>
